X:24
T:Poor Mary Sits A Weeping
%%score 1 { 2 | 3 }
L:1/8
Q:1/4=120
M:6/8
I:linebreak $
K:F
V:1 treble nm="Violin"
V:2 treble nm="Piano" snm="Pno."
V:3 bass 
V:1
C |:"F" F2 G A2 B | c3 A2 A |"C" B3 G2 G | E3 C2 C |$"F" F2 G A2 B | c3 A2 A |"C" B2 B G2 E | 
w: Poor|Ma- ry sits a-|weep- ing, A-|weep- ing, a-|weep- ing, Poor|Ma- ry sits a-|weep- ing, All|on a sum- mer's|
w: Poor|Ma- ry, choose a|sweet- heart, a|sweet- heart, a|sweet- heart, Poor|Ma- ry choose a|sweet- heart, All|on a sum- mer's|
"F" F3- F2 F |$"F" F2 G A2 B | c3 A2 A |"C" B3 G2 G | E3 C2 C |$"F" F2 G A2 B | c3 A2 A | 
w: day. * I'm|weep- ing for a|sweet heart A|sweet- heart, a|sweet- heart, I'm|weep- ing for a|sweet- heart, All|
w: day. * I'll|choose ??? for a|sweet- heart, a|sweet- heart, a|sweet- heart. I'll|choose ?? for a|sweet- heart, All|
"C" B2 B G2 E |"F" F3- F2 z :| 
w: on a sum- mer's|day. _|
w: on a sum- mer's|day. _|
V:2
C |: [A,CF]2 G [FA]2 B | [Ac]3 [FA]2 A | [GB]3 [EG]2 G | [CE]3 C2 C |$ [A,CF]2 G [FA]2 B | 
[Ac]3 [FA]2 A | [EB]2 B [EG]2 E | [A,F]3- [A,F]2 z |$ [A,CF]2 G [FA]2 B | [Ac]3 [FA]2 A | 
[GB]3 [EG]2 G | [CE]3 C2 C |$ [A,CF]2 G [FA]2 B | [Ac]3 [FA]2 A | [EB]2 B [EG]2 E | 
[A,F]3- [A,F]2 z :| 
V:3
z |: F,,2 C, A,2 z | F,,2 C, A,2 z | C,2 G, E2 z | C,2 G, E2 z |$ F,,2 C, A,2 z | F,,2 C, A,2 z | 
C,2 G, E2 z | F,,2 C, A,2 z |$ F,,2 C, A,2 z | F,,2 C, A,2 z | C,2 G, E2 z | C,2 G, E2 z |$ 
F,,2 C, A,2 z | F,,2 C, A,2 z | C,2 G, E2 z | F,,2 C, A,2 z :| 



